assets/sonr-icons/light-bulb.svg

<svg xmlns="http://www.w3.org/2000/svg" width="24" height="24" fill="none" viewBox="0 0 24 24"><path fill="#000" d="M9 18H15V20C15 21.105 14.105 22 13 22H11C9.895 22 9 21.105 9 20V18Z"/><path fill="#000" d="M10.707 10.293C10.316 9.90201 9.683 9.90201 9.292 10.293C8.901 10.684 8.901 11.317 9.292 11.708L10.999 13.415V20.001H12.999V13.415L14.706 11.708C15.097 11.317 15.097 10.684 14.706 10.293C14.315 9.90201 13.682 9.90201 13.291 10.293L11.998 11.586L10.707 10.293Z"/><path fill="#000" d="M15 15.285L15.749 14.684C17.124 13.581 18 11.893 18 9.99898C18 6.68598 15.313 3.99898 12 3.99898C8.687 3.99898 6 6.68598 6 9.99898C6 11.893 6.875 13.581 8.251 14.684L9 15.285V17C9 17.552 9.448 18 10 18H14C14.552 18 15 17.552 15 17L15.001 15.285H15ZM17 16.246V17.001C17 18.658 15.657 20.001 14 20.001H10C8.343 20.001 7 18.658 7 17.001V16.246C5.171 14.78 4 12.527 4 10.001C4 5.58298 7.582 2.00098 12 2.00098C16.418 2.00098 20 5.58298 20 10.001C20 12.528 18.83 14.78 17 16.246Z"/></svg>

<svg xmlns="http://www.w3.org/2000/svg" width="24" height="24" fill="none"><path fill="currentColor" d="M9 18h6v2a2 2 0 0 1-2 2h-2a2 2 0 0 1-2-2z"/><path fill="currentColor" d="M10.707 10.293a1 1 0 1 0-1.415 1.415l1.707 1.707v6.586h2v-6.586l1.707-1.707a1 1 0 1 0-1.415-1.415l-1.293 1.293z"/><path fill="currentColor" d="m15 15.285.749-.601a6 6 0 1 0-7.498 0l.749.601V17a1 1 0 0 0 1 1h4a1 1 0 0 0 1-1zm2 .961v.755a3 3 0 0 1-3 3h-4a3 3 0 0 1-3-3v-.755a8 8 0 1 1 10 0"/></svg>
